!!!COM: Louise Reichardt
!!!OTL: Sechs Lieder von Novalis, Op.4
!!!OMV: Noch ein Bergmannslied
**kern
*I"Voice
*clefG2
*k[b-e-a-]
*M4/4
*met(c)
!LO:TX:a:B:t=Erhaben
!LO:TX:a:B:t=In a noble, lofty style
4EE- 4E- 4e-
=1
4GG 4G 4g
4BB- 4B- 4b-
4E- 4e- 4ee-
4EE- 4E- 4e- 4g 4b-
=2
2AA- 2A- 2e- 2a- 2cc
4EE- 4E- 4e- 4g 4b-
4G 4e- 4b-
=3
4A- 4B- 4d
4G 4B- 4e-
4F 4d 4a-
4E- 4e- 4g
=4
2.BB- 2.B- 2.d 2.f
4BBn 4Bn
=5
4C 4c
4E- 4e-
4G 4g
4c 4cc
=6
2e- 2ee-
[4.c-X [4.e- [4.g-X [4.an
8c-] 8e-] 8g-] 8a]
=7
[4.B- [4.e- [4.gn [4.b-
8B-] 8e-] 8g] 8b-]
[4BB- [4A- [4B- [4d
8BB-L_ 8A-_ 8B-_ 8c 8d_
8BB-J] 8A-] 8B-] 8d]
=8
2.EE- 2.E- 2.G 2.B- 2.e-
==
*-
!!!YEM: OpenScore (CC0)
